X:1
T:MISS WATSON
T:MISS WATSON
T:re-named Belhelvie House
T:Wm MARSHALL
C:Wm MARSHALL
%%score 1 2
L:1/8
M:4/4
K:Bmin
V:1 treble 
V:2 bass 
V:1
|: B,<B B>F B/B/B d2 | c>B A<c e/d/c/B/ Ac | B,<B B>F B/B/B d2 | TcB Ac B2 B,2 :| %4
 d2- df d/d/d Td2 | cB Ac e/d/c/B/ Ac | d2- df d/d/d (fd) | cA ec B2 B,2 | d2- df d/d/d Td2 | %9
 cB Ac e/d/c/B/ Ac | d2- df cA ec | dB cA B2 B,2 |] %12
V:2
|: B,,2 [F,B,]2 D,2 [F,B,]2 | A,,2 [E,A,]2 C,2 [E,A,]2 | B,,2 [F,B,]2 D,2 [F,B,]2 | %3
 A,,2 [E,A,]2 B,,2 [D,F,B,]2 :| B,2 [DF]2 F,2 [DF]2 | A,2 [CE]2 E,2 [CE]2 | B,2 [DF]2 F,2 [DF]2 | %7
 A,2 A,2 [B,,B,]2 [B,,D,F,]2 | B,2 [DF]2 F,2 [DF]2 | A,2 [CE]2 E,2 [CE]2 | %10
 [B,,B,]2 [D,D]2 [A,,A,]2 [A,,A,]2 | [B,,B,]2 F,2 B,,2 [B,,D,F,B,]2 |] %12

